X:90
T:Well Done Jack. JGi.090
O:Tealby,Lincolnshire
M:C|
L:1/8
Q:1/2=90
S:Joshua Gibbons MS,1823,Tealby,Lincs.
R:Reel
Z:VMP/R.Greig, 2009
K:G
gf g2dBe2|cBAG FG A2|gf g2dBe2|cBAG DGG2:|
|:BcdBe2d2|cBAG FGA2|BcdBe2d2|cBAG DGG2:|

